public/img/old-svg/suitecase.svg

<svg width="19" height="18" viewBox="0 0 19 18" fill="none" xmlns="http://www.w3.org/2000/svg">
<path d="M16.0711 16.9962H9.51954C9.50703 17.093 9.48053 17.1874 9.44087 17.2765C9.27512 17.5176 9.09251 17.7447 8.91551 17.9773C8.73852 17.7475 8.55872 17.5204 8.38734 17.2877C8.27778 17.142 8.21597 16.9233 8.07269 16.8448C7.83992 16.7306 7.64585 16.5507 7.51452 16.3275C7.38319 16.1043 7.32036 15.8475 7.33382 15.589C7.33382 12.2981 7.33382 9.0072 7.33382 5.71628C7.33382 4.77722 7.78613 4.36235 8.73852 4.35955C11.4281 4.3502 14.1176 4.3502 16.8071 4.35955C17.7371 4.35955 18.2118 4.81086 18.2118 5.71908C18.2212 9.01 18.2212 12.3009 18.2118 15.5918C18.2277 15.87 18.1495 16.1454 17.9899 16.3739C17.5966 16.7972 17.1218 17.1027 17.0066 17.7755C16.9476 18.1175 16.338 18.0558 16.1806 17.6774C16.1184 17.4552 16.0816 17.2267 16.0711 16.9962ZM10.4944 10.6919C10.4944 9.31554 10.4944 7.93919 10.4944 6.56283C10.4944 6.19001 10.4663 5.80598 9.99433 5.80598C9.52235 5.80598 9.43244 6.15077 9.43244 6.52639C9.43244 9.2791 9.43244 12.0318 9.43244 14.7845C9.43244 15.1517 9.48301 15.5386 9.96623 15.5246C10.4494 15.5105 10.4944 15.1321 10.4944 14.7509C10.4944 13.3998 10.4944 12.0458 10.4944 10.6919ZM16.1132 10.6386C16.1132 9.30994 16.1132 7.97937 16.1132 6.64693C16.1132 6.24047 16.1385 5.78075 15.5513 5.80598C14.9642 5.83121 15.0597 6.27972 15.0597 6.64693C15.0597 9.32676 15.0597 12.0066 15.0597 14.6864C15.0597 15.0676 15.0597 15.5021 15.5822 15.5049C16.1048 15.5077 16.1132 15.0845 16.1132 14.692C16.1132 13.3409 16.1132 11.9898 16.1132 10.6386Z" fill="#EC824A"/>
<path d="M2.38936 16.9378C2.39623 17.1665 2.36489 17.3948 2.29665 17.6133C2.20113 17.7731 1.98481 17.9778 1.84434 17.9609C1.70387 17.9441 1.35831 17.7255 1.3555 17.5909C1.3555 17.092 1.0268 16.9097 0.703717 16.6322C0.438897 16.3784 0.280293 16.0338 0.259831 15.6679C0.220499 13.4759 0.228927 11.281 0.259831 9.08891C0.2452 8.92931 0.265029 8.76843 0.317983 8.61713C0.370936 8.46582 0.455782 8.3276 0.566803 8.21177C0.677824 8.09595 0.81244 8.00522 0.961577 7.9457C1.11071 7.88618 1.2709 7.85925 1.43135 7.86673C3.01867 7.8359 4.60879 7.86673 6.29444 7.86673C6.29444 8.19751 6.29444 8.49184 6.29444 8.78617C6.29444 10.8381 6.29444 12.8928 6.29444 14.9531C6.29444 15.5923 6.38715 16.2314 6.44334 16.9546L2.38936 16.9378ZM3.38951 12.4527C3.38951 11.637 3.38951 10.8185 3.38951 10.0027C3.38951 9.62992 3.32208 9.21505 2.85572 9.29635C2.72434 9.35909 2.61064 9.4534 2.52483 9.57083C2.43901 9.68826 2.38377 9.82511 2.36408 9.96911C2.321 11.5781 2.321 13.1881 2.36408 14.799C2.36408 15.0372 2.67873 15.2699 2.8473 15.5054C3.0271 15.2811 3.34175 15.0681 3.36142 14.8326C3.43165 14.0533 3.38951 13.2572 3.38951 12.4639V12.4527Z" fill="#EC824A"/>
<path d="M15.0685 3.26659H14.0065C14.0065 2.72838 14.0065 2.20139 14.0065 1.67159C14.0065 1.28475 13.8464 1.11096 13.4671 1.11096H13.3969C11.5961 1.00444 11.5961 1.00444 11.5455 2.79286C11.5455 2.93021 11.5202 3.07317 11.5034 3.23856H10.4779C10.6577 2.25745 10.0649 1.1502 11.0651 0.320466C11.5286 -0.0635678 13.8745 -0.122435 14.3942 0.253189C15.4983 1.0633 14.9112 2.22101 15.0685 3.26659Z" fill="#EC824A"/>
<path d="M6.42599 4.65146L6.23495 5.65779C5.39212 5.48119 4.93419 5.78674 5.18423 6.75383H4.21779C3.78233 5.24573 4.59425 4.44402 6.42599 4.65146Z" fill="#EC824A"/>
</svg>

<svg width="19" height="18" viewBox="0 0 19 18" fill="none" xmlns="http://www.w3.org/2000/svg"><path d="M16.071 16.996H9.52a1.006 1.006 0 01-.08.28c-.165.242-.347.469-.524.701-.177-.23-.357-.457-.529-.69-.11-.145-.171-.364-.314-.442a1.324 1.324 0 01-.74-1.256V5.716c0-.939.453-1.354 1.406-1.356 2.69-.01 5.379-.01 8.068 0 .93 0 1.405.45 1.405 1.36.01 3.29.01 6.58 0 9.872.016.278-.063.553-.222.782-.393.423-.868.729-.983 1.402-.06.341-.669.28-.826-.099a3.04 3.04 0 01-.11-.68zm-5.577-6.304v-4.13c0-.372-.028-.756-.5-.756s-.562.345-.562.72v8.258c0 .368.051.755.534.74.483-.013.528-.392.528-.773v-4.06zm5.62-.053V6.647c0-.407.024-.866-.563-.841-.587.025-.491.474-.491.84v8.04c0 .382 0 .816.522.819.523.003.531-.42.531-.813v-4.053zM2.39 16.938c.006.229-.025.457-.093.675-.096.16-.312.365-.453.348-.14-.017-.486-.235-.489-.37 0-.499-.328-.681-.651-.959a1.448 1.448 0 01-.444-.964 205.43 205.43 0 010-6.58 1.119 1.119 0 01.702-1.142c.149-.06.309-.087.47-.08 1.587-.03 3.177 0 4.862 0v7.087c0 .64.093 1.278.15 2.002l-4.055-.017zm1-4.485v-2.45c0-.373-.068-.788-.534-.707a.879.879 0 00-.492.673 90.266 90.266 0 000 4.83c0 .238.315.47.483.706.18-.224.495-.437.514-.672.07-.78.029-1.576.029-2.37v-.01zm11.679-9.186h-1.063V1.672c0-.387-.16-.561-.539-.561h-.07c-1.8-.107-1.8-.107-1.851 1.682 0 .137-.026.28-.043.446h-1.025c.18-.982-.413-2.089.587-2.919.464-.384 2.81-.442 3.33-.067 1.103.81.516 1.968.674 3.014zM6.426 4.651l-.191 1.007c-.843-.177-1.3.129-1.05 1.096h-.967c-.436-1.508.376-2.31 2.208-2.103z" fill="#EC824A"/></svg>
